images/brick-wall.svg

<svg xmlns="http://www.w3.org/2000/svg" viewBox="0 0 512 512" style="height: 512px; width: 512px;"><path d="M0 0h512v512H0z" fill="#000" fill-opacity="1"></path><g class="" transform="translate(0,0)" style=""><path d="M494 18.02l-101 .103V119h101zm-119 .12l-238 .247V119h238zm-256 .266L18 18.51V119h101zM18 137v110h229V137zm247 0v110h229V137zM18 265v110h101V265zm119 0v110h238V265zm256 0v110h101V265zM18 393v100.98l229-.236V393zm247 0v100.727l229-.237V393z" fill="#fff" fill-opacity="1"></path></g></svg>

<svg xmlns="http://www.w3.org/2000/svg" viewBox="0 0 512 512" style="height: 512px; width: 512px;"><g class="" transform="translate(0,0)" style=""><g><path d="M494 18.02L393 18.123L393 119L494 119Z" class="" fill="#8b572a" fill-opacity="1"></path><path d="M375 18.14L137 18.387L137 119L375 119Z" class="" fill="#b57204" fill-opacity="1"></path><path d="M119 18.406L18 18.51L18 119L119 119Z" class="" fill="#8b572a" fill-opacity="1"></path><path d="M18 137L18 247L247 247L247 137Z" class="" fill="#b57204" fill-opacity="1"></path><path d="M265 137L265 247L494 247L494 137Z" class="" fill="#8b572a" fill-opacity="1"></path><path d="M18 265L18 375L119 375L119 265Z" class="" fill="#b57204" fill-opacity="1"></path><path d="M137 265L137 375L375 375L375 265Z" class="" fill="#8b572a" fill-opacity="1"></path><path d="M393 265L393 375L494 375L494 265Z" class="" fill="#b57204" fill-opacity="1"></path><path d="M18 393L18 493.98L247 493.744L247 393Z" class="" fill="#8b572a" fill-opacity="1"></path><path d="M265 393L265 493.727L494 493.49L494 393Z" class="selected" fill="#b57204" fill-opacity="1"></path></g></g></svg>
